X:3015
T:Curly-headed Ploughboy, The
R:Reel
C:Trad.
O:England
M:4/4
L:1/8
Q:1/4=140
K:G
"D7"dc|"G"B2d2 G2B2|"C"E4 "G"D2G2|"D7"FGAB c2B2|"G"B4 "D7"A2dc|
"G"B2d2 G2B2|"C"E4 "G"D2G2|"D7"FGAB c2F2|"G"G6:|
K:D
|:"D"d2|"A7"c2c2 cABc|"D"d2d2 d2ed|"A7"c2c2 cABc|"D"d6 ed|
"A7"c2c2 cABc|"D"d2A2 "G"B2G2|"A7"F2A2 G2E2|"D"D6:|

